src/icons/menu.icon.svg

<svg width="24px" height="24px" viewBox="0 0 24 24" version="1.1" xmlns="http://www.w3.org/2000/svg" xmlns:xlink="http://www.w3.org/1999/xlink">
    <!-- Generator: Sketch 49.2 (51160) - http://www.bohemiancoding.com/sketch -->
    <title>IconMenu</title>
    <desc>Created with Sketch.</desc>
    <defs></defs>
    <g id="Page-1" stroke="none" stroke-width="1" fill="none" fill-rule="evenodd">
        <g id="IconMenu">
            <path d="M4,7 L20,7 L20,8.6796875 L4,8.6796875 L4,7 Z M4,12.8203125 L4,11.1796875 L20,11.1796875 L20,12.8203125 L4,12.8203125 Z M4,17 L4,15.3203125 L20,15.3203125 L20,17 L4,17 Z" id="menu" fill="currentColor"></path>
        </g>
    </g>
</svg>

<svg xmlns="http://www.w3.org/2000/svg" viewBox="0 0 24 24"><path d="M4 7h16v1.68H4V7zm0 5.82v-1.64h16v1.64H4zM4 17v-1.68h16V17H4z" fill="currentColor" fill-rule="evenodd"/></svg>
